X: 9
T:Miss Mary Printy
% Nottingham Music Database
S:I. MacPhail, via PR
M:4/4
L:1/4
K:F
[CE]|"F"[FA][FA] [Ac][Ac]|[cf][=B/2_e/2][c/2f/2] [d/2f/2][c/2f/2][A/2c/2][F/2A/2]|"Gm"[GB][GB] [Bd][Bd]|"Gm"[ce][=B/2_e/2][c/2e/2] "C7"[d/2f/2][c/2e/2][A/2c/2][G/2B/2]|
"F"[FA][FA] [Ac][Ac]|[cf][=B/2_e/2][c/2f/2] [d/2f/2][c/2f/2][A/2c/2][F/2A/2]|"Gm"[GB][GB] "C7"[c/2e/2][B/2c/2][G/2B/2][E/2G/2]|"F"[FA][FA]F::
[A/2c/2][B/2d/2]|"F"[cf][A/2c/2][c/2f/2] [F/2A/2][c/2f/2][A/2c/2][c/2f/2]|[cf][A/2c/2][c/2f/2] [F/2A/2][c/2f/2][A/2c/2][c/2f/2]|"C7"[ce][B/2c/2][c/2e/2] [E/2G/2][c/2e/2][B/2c/2][c/2e/2]|\
"Gm"[ce][B/2d/2][c/2e/2] "C7"[E/2G/2][c/2e/2][B/2c/2][c/2e/2]|
"F"[cf][A/2c/2][c/2f/2] [F/2A/2][c/2f/2][A/2c/2][c/2f/2]|[cf][A/2c/2][c/2f/2] [F/2A/2][c/2f/2][A/2c/2][c/2f/2]|"Gm"[ce][B/2d/2][c/2e/2] "C7"[B/2c/2][G/2B/2][E/2G/2][G/2B/2]|\
"F"[FA][FA]F:|


